X: 24
T: Saint Anne's
Z: Aaron Bergen
S: https://thesession.org/tunes/103#setting47279
R: reel
M: 4/4
L: 1/8
K: Dmaj
|:de|"D"f3g fedB|A2FA DAFA|"G"B2GB DBGB|"D"A2FA DAFA|
"D"f3g fedB|A2FA DAFA|"G"BGBd "A"cAce|"D"d2dc d2:|
|:de|"D"f2fe defd|"Em"aggf g2gf|"A"edcB Acea|"D"baa^g a3=g|
"D"f2fe defd|"Em"aggf g2gf|"A"edcB Aceg|"D"fddc d2:|

